assets/bookmark.svg

<svg xmlns="http://www.w3.org/2000/svg" viewBox="0 0 384 512"><path d="M336 0H48C21.49 0 0 21.492 0 48v431.914c0 24.695 26.791 40.082 48.123 27.641L192 423.625l143.877 83.93C357.209 519.996 384 504.609 384 479.914V48c0-26.508-21.49-48-48-48Zm0 452-144-84-144 84V54c0-3.375 2.625-6 5.999-6H330c3.375 0 6 2.625 6 6v398Z"/></svg>

<svg xmlns="http://www.w3.org/2000/svg" viewBox="0 0 384 512"><!-- Font Awesome Pro 6.0.0-alpha2 by @fontawesome - https://fontawesome.com License - https://fontawesome.com/license (Commercial License) --><path d="M336 0H48C21.49 0 0 21.492 0 48V479.914C0 504.609 26.791 519.996 48.123 507.555L192 423.625L335.877 507.555C357.209 519.996 384 504.609 384 479.914V48C384 21.492 362.51 0 336 0ZM336 452L192 368L48 452V54C48 50.625 50.625 48 53.999 48H330C333.375 48 336 50.625 336 54V452Z"/></svg>
